ePapirus/24x24/actions/edit-clear-symbolic.svg

<svg xmlns="http://www.w3.org/2000/svg" width="24" height="24" version="1.1">
 <path style="fill:#bebebe" d="M 9.7858307,4.01184 A 0.75431065,0.76462433 0 0 0 9.4227057,4.2387931 L 1.8878613,11.955201 a 0.75431065,0.76462433 0 0 0 0.045391,1.089375 l 7.3078913,6.717814 a 0.75431065,0.76462433 0 0 0 0.4992969,0.226953 l 11.4838285,0 a 0.75431065,0.76462433 0 0 0 0.771641,-0.77164 l 0,-14.4342223 A 0.75431065,0.76462433 0 0 0 21.224269,4.01184 l -11.2568758,0 a 0.75431065,0.76462433 0 0 0 -0.09078,0 0.75431065,0.76462433 0 0 0 -0.090781,0 z m 1.9517973,3.2681253 2.632656,2.5418757 2.587266,-2.5418757 2.13336,2.13336 -2.541875,2.5872667 2.541875,2.678047 -2.13336,2.042579 -2.587266,-2.541876 -2.632656,2.541876 -2.0879691,-2.08797 2.5418751,-2.632656 -2.5418751,-2.5872667 2.0879691,-2.13336 z"/>
</svg>

<svg xmlns="http://www.w3.org/2000/svg" width="24" height="24" version="1.1">
 <path fill="#6e6e6e" d="M 9.79,4 A 0.754,0.765 0 0 0 9.43,4.23 L 1.89,11.94 A 0.754,0.765 0 0 0 1.94,13.03 L 9.25,19.75 A 0.754,0.765 0 0 0 9.75,19.98 H 21.23 A 0.754,0.765 0 0 0 22,19.21 V 4.77 A 0.754,0.765 0 0 0 21.23,4 H 9.97 A 0.754,0.765 0 0 0 9.88,4 0.754,0.765 0 0 0 9.79,4 Z M 11.74,7.27 14.37,9.81 16.96,7.27 19.09,9.4 16.55,11.99 19.09,14.67 16.96,16.71 14.37,14.17 11.74,16.71 9.65,14.62 12.2,11.99 9.65,9.4 Z"/>
</svg>
